X: 503
T: Cruel Willie
B: jims roots
M:4/4
L:1/8
Q: 1/4=100
K:D
V:1 
dd B2 A2 F2 | D2 A2 BA c2 |: [P:A Part]"D"d4 dBAB | d6 AB | defe d2 (3BdB |
"A"A6 AB | "D"d2 d2 "D7"BBAA | "G"BAFE "Gm"DDDE | "D"FABB "A"AFEF | "D"D6 [AD]E:|
"D"F2 FF FEDF | A6 DE | FA B2 "A"AFEF | "D"D6 DE | F3F FEDF |
A6 DE | FABB "A"AFEF | "D"D6 DE || FEDF ED F2 | A6 FG |
A2 B2 "A"AFEF | "D"D6 DE | FEDF EDFD | A6 DE | FD B2 "A"AFEF | "D"D8|]
% abcbook-tune_id 6298c245bec86b71affa4853


% abcbook-boost 0
% abcbook-tablature 
% abcbook-transpose 
% abcbook-lastupdated 1654178373881
% abcbook-soundfonts 
% abcbook-repeats 1


